assets/Boomerang/Flat/boomerang_flat.svg

<svg width="32" height="32" viewBox="0 0 32 32" fill="none" xmlns="http://www.w3.org/2000/svg">
<path d="M9.14453 9.9725L11.2537 6.75436L10.7058 2.62745L9.70898 2.50713L7.96785 5.84592L8.18615 9.67151L9.14453 9.9725Z" fill="#D3883E"/>
<path d="M13.9364 11.4773L16.8776 12.4009C18.1782 12.8112 19.1886 13.8219 19.5988 15.1228L20.5219 18.0638L25.1315 18.4094L28.7611 16.3125L28.3326 12.7812C27.7523 7.99784 23.9907 4.23522 19.2187 3.65481L15.6896 3.22891L14.1143 7.23757L13.9364 11.4773Z" fill="#D3883E"/>
<path d="M29.3659 21.2957L25.4794 21.1541L22.0259 22.8558L22.3267 23.8142H26.0786L29.4868 22.2922L29.3659 21.2957Z" fill="#D3883E"/>
<path d="M29.8497 25.2821L26.3492 25.1744L23.2291 26.6894L23.5405 27.6816C24.2808 30.0532 27.2821 30.7837 29.0329 29.0325C29.7532 28.312 30.1034 27.3013 29.9733 26.3006L29.8497 25.2821Z" fill="#D3883E"/>
<path d="M5.31108 8.76869L4.32221 8.45816C1.95119 7.71765 1.21087 4.72556 2.97163 2.96433C3.69194 2.24383 4.70238 1.90359 5.70281 2.02368L6.71867 2.14624L6.51821 5.63331L5.31108 8.76869Z" fill="#D3883E"/>
<path d="M6.71867 2.14624L5.31104 8.76864L8.18615 9.67151L9.70898 2.50712L6.71867 2.14624Z" fill="#F9C23C"/>
<path d="M22.3267 23.8142L29.4868 22.2922L29.8497 25.2821L23.2291 26.6894L22.3267 23.8142Z" fill="#F9C23C"/>
<path d="M10.7058 2.62744L9.14453 9.97249L13.9364 11.4773L15.6896 3.22891L10.7058 2.62744Z" fill="#CA0B4A"/>
<path d="M20.5219 18.0638L28.7611 16.3125L29.3659 21.2957L22.0259 22.8558L20.5219 18.0638Z" fill="#CA0B4A"/>
</svg>

<svg xmlns="http://www.w3.org/2000/svg" width="32" height="32" fill="none"><path fill="#D3883E" d="m9.145 9.973 2.109-3.219-.548-4.127-.997-.12-1.741 3.339.218 3.826.959.3ZM13.936 11.477l2.942.924a4.157 4.157 0 0 1 2.72 2.722l.924 2.94 4.61.346 3.63-2.096-.43-3.532a10.455 10.455 0 0 0-9.113-9.126l-3.53-.426-1.575 4.009-.178 4.24ZM29.366 21.296l-3.887-.142-3.453 1.702.3.958h3.753l3.408-1.522-.121-.996ZM29.85 25.282l-3.5-.108-3.12 1.515.31.993c.74 2.371 3.742 3.102 5.493 1.35.72-.72 1.07-1.73.94-2.731l-.123-1.019ZM5.311 8.769l-.989-.31c-2.37-.741-3.111-3.733-1.35-5.495.72-.72 1.73-1.06 2.73-.94l1.017.122-.2 3.487L5.31 8.77Z"/><path fill="#F9C23C" d="M6.719 2.146 5.31 8.77l2.875.903L9.71 2.507l-2.99-.36ZM22.327 23.814l7.16-1.522.363 2.99-6.62 1.407-.903-2.875Z"/><path fill="#CA0B4A" d="M10.706 2.627 9.145 9.972l4.791 1.505L15.69 3.23l-4.984-.602ZM20.522 18.064l8.24-1.752.604 4.984-7.34 1.56-1.504-4.792Z"/></svg>
